X:1
T:There Is Coming on a Great Day of Rejoicing
T:There Is Coming on a Great Day of Rejoicing
T:Richard Slater
T:Richard Slater, 1887
T:Public Domain Courtesy of the Cyber Hymnal™
T:Public Domain Courtesy of the Cyber Hymnal™
C:Richard Slater
Z:Public Domain
Z:Courtesy of the Cyber Hymnal™
%%score ( 1 2 ) ( 3 4 )
L:1/8
Q:1/4=108
M:4/4
K:Eb
V:1 treble 
V:2 treble 
V:3 bass 
V:4 bass 
V:1
 [EG][FA] | [GB][GB][^F=A][GB] cedc | [EB]4 [EG]2 (3[GB][FA][EG] | %3
w: 1.~There is|com- ing on a great day of re-|joic- ing, When all the|
w: 2.~From far|dis- tant lands bat- tal- ions now are|march- ing, Who will have|
w: 3.~Do you,|com- rades, feel at times a bit down-|heart- ed, When in the|
 [DF]2 [DF]>[DF] [DF]2 [DG]>[DF] | EDE[Ec] [EB]2 | [EG][FA] | [GB][GB][^F=A][GB] cedc | %7
w: ran- somed shall ga- ther, their|Lord as king to crown;|All earth’s|sor- row and its sin then dis- ap-|
w: part in the hon- ors which|Je- sus will be- stow;|God be|praised for all the souls that now are|
w: fight all looks dark, and the|foe seems fierce and strong?|At such|times I find my fear has all de-|
 [EB]4 [EG]2 (3[GB][FA][EG] | [DF]2 [DF]>[DF] [DF]2 [DG]>[DF] | E6 ||"^Refrain" [EG]>[EF] | %11
w: pear- ing, Ev- ery heart|will the Sav- ior th- en|own.||
w: start- ing, Swell- ing the|hosts that to vic- to- ry|go.|O the|
w: part- ed When I re-|mem- ber that day com- ing|on.||
 EE[EG][EA] BB c>A | [Ee]4 [EB]2 G>F | [CE][CE][CD][CE] [DF]E [Ec]>[EB] | [DF]6 [DG]F | %15
w: ||||
w: crown- ing day is com- ing, Hal- le-|lu- jah! O the|crown- ing day is com- ing, Praise the|Lord! For our|
w: ||||
 EE[EG][EA] [EB]2 [Ec][EA] | [Ee][Ee] [Ee]>[Ec] [Ee]2 [Ed]>[Ec] | (c3 B) [EG]2 [DB]>[DA] | %18
w: |||
w: Sav- ior- King shall reign, He shall|have His own a- gain, Hal- le-|lu- * jah, Hal- le-|
w: |||
 [DF]4 E2 |] %19
w: |
w: lu- jah!|
w: |
V:2
 x2 | x4 E2 E2 | x8 | x8 | C3 x3 | x2 | x4 E2 E2 | x8 | x8 | E6 || x2 | x4 E2 E2 | x6 D2 | x8 | %14
 x8 | x8 | x8 | E4 x4 | x4 E2 |] %19
V:3
 [E,B,][E,B,] | [E,B,]2 [E,C][E,B,] A,CB,A, | [E,G,]4 [E,B,]2 (3:2:2[E,B,]2 [E,B,] | %3
 [B,,B,]2 [B,,B,]2 [B,,B,]2 [B,,B,]>[B,,A,] | [E,G,]2 G,^F, [E,G,]2 | [E,B,][E,B,] | %6
 [E,B,]2 [E,C][E,B,] A,CB,A, | [E,G,]4 [E,B,]2 (3:2:2[E,B,]2 [E,B,] | %8
 [B,,B,]2 [B,,B,]2 [B,,B,]2 [B,,B,]>[B,,A,] | [E,G,]6 || B,>A, | [E,G,]2 B,F, [E,G,]2 A,>[A,C] | %12
 [G,B,]4 [G,B,]2 [B,,B,]2 | [C,G,]2 ^F,G, [=B,,A,][C,G,] [A,,A,]>[G,,=B,] | %14
 [B,,B,]6 [B,,B,][D,A,] | [E,G,][E,G,][E,B,][E,F,] [E,G,]2 A,C | [A,C]2 [A,C]>A, [A,C]2 [A,B,]>A, | %17
 (A,3 G,) [E,B,]2 B,>B, | [B,,A,]4 [E,G,]2 |] %19
V:4
 x2 | x4 A,2 A,2 | x8 | x8 | x2 E,2 x2 | x2 | x4 A,2 A,2 | x8 | x8 | x6 || E,2 | x2 E,2 x4 | x8 | %13
 x2 C,2 x4 | x8 | x6 A,2 | x8 | E,4 B,,2 x2 | x6 |] %19

